X:6
T:Bath,The. (p)1651.PLFD.006
M:4/4
L:1/4
Q:1/2=80
S:Playford, Dancing Master,1st Ed.,1651.
O:England
H:1651.
Z:Chris Partington.
K:C
g>dg>d|g/f/e/d/gB|cAdd|A2A2|
G/G/G/G/ A/B/c/d/|d/d/d/e/dB|c/d/e/c/d>c|B4:|
